svg/sys.svg

<?xml version="1.0" encoding="UTF-8"?>
<svg xmlns="http://www.w3.org/2000/svg" xmlns:xlink="http://www.w3.org/1999/xlink" width="23.040001" height="32" viewBox="0 0 23.040001 32">
<defs>
<filter id="filter-remove-color" x="0%" y="0%" width="100%" height="100%">
<feColorMatrix color-interpolation-filters="sRGB" values="0 0 0 0 1 0 0 0 0 1 0 0 0 0 1 0 0 0 1 0" />
</filter>
<linearGradient id="linear-pattern-0" gradientUnits="userSpaceOnUse" x1="36" y1="97" x2="36" y2="-1" gradientTransform="matrix(1, 0, 0, 1, 0, 2)">
<stop offset="0" stop-color="rgb(78.431374%, 83.137256%, 85.882354%)" stop-opacity="1"/>
<stop offset="0.139" stop-color="rgb(84.705883%, 88.235295%, 90.196079%)" stop-opacity="1"/>
<stop offset="0.359" stop-color="rgb(92.156863%, 94.117647%, 95.294118%)" stop-opacity="1"/>
<stop offset="0.617" stop-color="rgb(97.647059%, 98.039216%, 98.431373%)" stop-opacity="1"/>
<stop offset="1" stop-color="rgb(100%, 100%, 100%)" stop-opacity="1"/>
</linearGradient>
<linearGradient id="linear-pattern-1" gradientUnits="userSpaceOnUse" x1="45.036999" y1="25.813" x2="58.536999" y2="12.313" gradientTransform="matrix(1, 0, 0, 1, 0, 2)">
<stop offset="0" stop-color="rgb(100%, 100%, 100%)" stop-opacity="1"/>
<stop offset="0.35" stop-color="rgb(98.039216%, 98.431373%, 98.431373%)" stop-opacity="1"/>
<stop offset="0.532" stop-color="rgb(92.941177%, 94.509804%, 95.686275%)" stop-opacity="1"/>
<stop offset="0.675" stop-color="rgb(86.666667%, 89.803922%, 91.37255%)" stop-opacity="1"/>
<stop offset="0.799" stop-color="rgb(78.039217%, 82.745099%, 85.490197%)" stop-opacity="1"/>
<stop offset="0.908" stop-color="rgb(67.843139%, 74.117649%, 78.039217%)" stop-opacity="1"/>
<stop offset="1" stop-color="rgb(57.254905%, 64.705884%, 69.01961%)" stop-opacity="1"/>
</linearGradient>
<clipPath id="clip-0">
<path clip-rule="nonzero" d="M 0 0 L 23.125 0 L 23.125 32 L 0 32 Z M 0 0 "/>
</clipPath>
<image id="source-13" x="0" y="0" width="24" height="32" xlink:href="data:image/png;base64,iVBORw0KGgoAAAANSUhEUgAAABgAAAAgCAYAAAAIXrg4AAAABmJLR0QA/wD/AP+gvaeTAAAAgklEQVRIie3UvQ3CMBCG4YcfhTGYgJLZmIH50kKRPUhMgZEQsqOToLy3svyd75Ut+UiSZNPZu+CIbaDHgglXlO9w3xGcccIuIJgx1nMhAQw4rOSfPGp9k8gT/EQKUpCC/k9dvEZAhHmttiUouNV1dBbde2Frmr4b97IWRfzGSZL8myc3vRIbjrhQ5wAAAABJRU5ErkJggg=="/>
<mask id="mask-0">
<g filter="url(#filter-remove-color)">
<use xlink:href="#source-13"/>
</g>
</mask>
<linearGradient id="linear-pattern-2" gradientUnits="userSpaceOnUse" x1="36" y1="65.807999" x2="36" y2="28.808001" gradientTransform="matrix(0.32, 0, 0, 0.32, 0, 0)">
<stop offset="0" stop-color="rgb(67.843139%, 80.000001%, 86.274511%)" stop-opacity="1"/>
<stop offset="1" stop-color="rgb(29.803923%, 42.352942%, 48.235294%)" stop-opacity="1"/>
</linearGradient>
<clipPath id="clip-1">
<rect x="0" y="0" width="24" height="32"/>
</clipPath>
<g id="source-12" clip-path="url(#clip-1)">
<path fill-rule="nonzero" fill="url(#linear-pattern-2)" d="M 16.734375 19.199219 L 12.929688 15.359375 C 12.894531 15.328125 12.863281 15.296875 12.800781 15.265625 L 13.472656 14.558594 L 13.566406 14.464844 C 14.464844 14.816406 15.519531 14.625 16.222656 13.886719 C 16.734375 13.375 17.023438 12.640625 16.960938 11.902344 C 16.960938 11.808594 16.894531 11.742188 16.832031 11.710938 C 16.769531 11.679688 16.671875 11.710938 16.609375 11.777344 L 15.390625 12.992188 L 14.144531 12.671875 L 13.792969 11.390625 L 15.007812 10.175781 C 15.070312 10.113281 15.070312 10.015625 15.070312 9.953125 C 15.039062 9.875 14.960938 9.824219 14.878906 9.824219 C 14.140625 9.753906 13.410156 10.023438 12.894531 10.558594 C 12.160156 11.296875 12 12.320312 12.320312 13.214844 L 12.222656 13.3125 L 11.230469 14.273438 L 9.40625 12.449219 L 9.34375 12.382812 C 9.375 12.351562 9.375 12.320312 9.40625 12.257812 C 9.792969 12.320312 10.496094 11.585938 11.105469 10.976562 L 9.34375 9.214844 C 8.574219 9.984375 8 10.527344 8.0625 10.910156 C 7.871094 11.007812 7.710938 11.105469 7.617188 11.230469 L 7.359375 11.457031 C 7.199219 11.617188 7.105469 11.808594 7.070312 12.03125 C 7.039062 12.0625 7.007812 12.097656 7.007812 12.128906 L 6.910156 12.257812 L 6.910156 12.289062 L 6.816406 12.414062 C 6.753906 12.480469 6.71875 12.574219 6.6875 12.640625 C 6.65625 12.671875 6.65625 12.703125 6.625 12.734375 L 6.59375 12.800781 C 6.558594 12.894531 6.496094 12.960938 6.460938 13.054688 C 6.433594 13.152344 6.367188 13.28125 6.335938 13.40625 L 6.304688 13.472656 C 6.304688 13.503906 6.273438 13.566406 6.273438 13.601562 L 6.238281 13.761719 C 6.207031 13.855469 6.207031 13.984375 6.207031 14.046875 L 6.207031 14.625 L 6.238281 14.753906 L 6.238281 14.816406 C 6.238281 14.878906 6.273438 14.945312 6.273438 14.976562 L 6.367188 15.296875 C 6.398438 15.390625 6.496094 15.457031 6.59375 15.457031 C 6.65625 15.457031 6.6875 15.425781 6.71875 15.390625 C 6.753906 15.359375 6.785156 15.328125 6.785156 15.265625 L 6.816406 14.945312 C 6.816406 14.910156 6.816406 14.878906 6.847656 14.847656 C 6.847656 14.816406 6.847656 14.785156 6.878906 14.785156 L 6.910156 14.65625 C 6.910156 14.65625 6.910156 14.625 6.945312 14.625 C 6.945312 14.625 6.945312 14.59375 6.976562 14.59375 C 6.976562 14.558594 7.007812 14.527344 7.007812 14.527344 C 7.039062 14.464844 7.039062 14.433594 7.070312 14.398438 C 7.070312 14.367188 7.105469 14.367188 7.105469 14.335938 C 7.136719 14.273438 7.167969 14.238281 7.199219 14.175781 L 7.265625 14.078125 C 7.265625 14.046875 7.292969 14.046875 7.328125 14.015625 L 7.359375 13.984375 C 7.390625 13.921875 7.457031 13.886719 7.519531 13.824219 L 7.550781 13.792969 C 7.585938 13.761719 7.648438 13.726562 7.679688 13.695312 C 7.710938 13.695312 7.710938 13.664062 7.742188 13.664062 C 7.777344 13.664062 7.777344 13.632812 7.808594 13.632812 C 7.835938 13.601562 7.871094 13.566406 7.9375 13.566406 L 8.03125 13.503906 L 8.128906 13.472656 C 8.160156 13.441406 8.191406 13.441406 8.222656 13.441406 C 8.257812 13.441406 8.257812 13.441406 8.289062 13.40625 C 8.320312 13.40625 8.320312 13.40625 8.320312 13.375 C 8.351562 13.375 8.351562 13.375 8.382812 13.34375 L 8.414062 13.34375 C 8.449219 13.375 8.480469 13.441406 8.511719 13.472656 L 10.304688 15.265625 L 6.367188 18.910156 C 5.886719 19.390625 5.824219 20.097656 6.304688 20.574219 C 6.785156 21.054688 7.457031 20.929688 7.9375 20.449219 L 11.328125 16.863281 L 11.390625 16.929688 L 15.199219 20.734375 C 15.625 21.152344 16.308594 21.152344 16.734375 20.734375 C 17.183594 20.320312 17.183594 19.617188 16.734375 19.199219 M 7.425781 20.03125 C 7.230469 20.222656 6.976562 20.222656 6.785156 20.03125 C 6.59375 19.839844 6.59375 19.585938 6.785156 19.390625 C 6.976562 19.199219 7.230469 19.199219 7.425781 19.390625 C 7.585938 19.585938 7.585938 19.871094 7.425781 20.03125 M 7.425781 20.03125 "/>
</g>
<clipPath id="clip-2">
<rect x="0" y="0" width="24" height="32"/>
</clipPath>
<g id="source-15" clip-path="url(#clip-2)">
<g clip-path="url(#clip-0)">
<g mask="url(#mask-0)">
<use xlink:href="#source-12"/>
</g>
</g>
</g>
</defs>
<path fill-rule="nonzero" fill="url(#linear-pattern-0)" stroke-width="2" stroke-linecap="butt" stroke-linejoin="miter" stroke="rgb(44.313726%, 56.862748%, 63.137257%)" stroke-opacity="1" stroke-miterlimit="4" d="M 44.995118 1.000977 L 71.997072 27.697755 L 71.997072 98.999026 L 0 98.999026 L 0 1.000977 Z M 44.995118 1.000977 " transform="matrix(0.32, 0, 0, 0.32, 0, 0)"/>
<path fill-rule="nonzero" fill="url(#linear-pattern-1)" stroke-width="2" stroke-linecap="butt" stroke-linejoin="bevel" stroke="rgb(44.313726%, 56.862748%, 63.137257%)" stroke-opacity="1" stroke-miterlimit="4" d="M 44.995118 1.000977 L 71.997072 27.697755 L 44.995118 27.697755 Z M 44.995118 1.000977 " transform="matrix(0.32, 0, 0, 0.32, 0, 0)"/>
<path fill-rule="nonzero" fill="rgb(29.803923%, 42.352942%, 48.235294%)" fill-opacity="1" d="M 2.878906 27.328125 L 4.128906 27.199219 C 4.191406 27.617188 4.351562 27.9375 4.574219 28.128906 C 4.800781 28.320312 5.121094 28.414062 5.503906 28.414062 C 5.921875 28.414062 6.238281 28.320312 6.433594 28.160156 C 6.65625 27.96875 6.753906 27.777344 6.753906 27.550781 C 6.753906 27.390625 6.71875 27.265625 6.625 27.167969 C 6.527344 27.070312 6.367188 26.976562 6.144531 26.878906 C 5.984375 26.816406 5.632812 26.71875 5.121094 26.59375 C 4.414062 26.433594 3.9375 26.207031 3.648438 25.953125 C 3.007812 25.394531 2.882812 24.445312 3.359375 23.742188 C 3.550781 23.457031 3.808594 23.230469 4.160156 23.105469 C 4.511719 22.945312 4.929688 22.878906 5.40625 22.878906 C 6.207031 22.878906 6.816406 23.070312 7.230469 23.425781 C 7.648438 23.777344 7.839844 24.257812 7.871094 24.832031 L 6.59375 24.894531 C 6.527344 24.574219 6.433594 24.320312 6.238281 24.191406 C 6.046875 24.03125 5.792969 23.96875 5.40625 23.96875 C 5.023438 23.96875 4.734375 24.03125 4.511719 24.191406 C 4.386719 24.277344 4.316406 24.421875 4.320312 24.574219 C 4.320312 24.734375 4.382812 24.863281 4.511719 24.960938 C 4.671875 25.089844 5.089844 25.246094 5.695312 25.375 C 6.304688 25.503906 6.785156 25.664062 7.105469 25.824219 C 7.425781 25.984375 7.648438 26.207031 7.808594 26.464844 C 7.96875 26.71875 8.0625 27.070312 8.0625 27.488281 C 8.0625 27.839844 7.96875 28.191406 7.742188 28.511719 C 7.550781 28.832031 7.265625 29.054688 6.878906 29.214844 C 6.496094 29.375 6.046875 29.441406 5.472656 29.441406 C 4.671875 29.441406 4.03125 29.246094 3.617188 28.863281 C 3.230469 28.574219 2.976562 28.03125 2.878906 27.328125 M 10.878906 29.40625 L 10.878906 26.71875 L 8.542969 23.007812 L 10.046875 23.007812 L 11.550781 25.535156 L 13.023438 23.007812 L 14.527344 23.007812 L 12.160156 26.71875 L 12.160156 29.40625 Z M 14.816406 27.328125 L 16.0625 27.199219 C 16.128906 27.617188 16.289062 27.9375 16.511719 28.128906 C 16.734375 28.320312 17.054688 28.414062 17.441406 28.414062 C 17.855469 28.414062 18.175781 28.320312 18.367188 28.160156 C 18.59375 27.96875 18.6875 27.777344 18.6875 27.550781 C 18.6875 27.390625 18.65625 27.265625 18.558594 27.167969 C 18.464844 27.070312 18.304688 26.976562 18.078125 26.878906 C 17.921875 26.816406 17.566406 26.71875 17.054688 26.59375 C 16.351562 26.433594 15.871094 26.207031 15.585938 25.953125 C 15.199219 25.601562 15.007812 25.183594 15.007812 24.671875 C 15.007812 24.351562 15.105469 24.03125 15.296875 23.742188 C 15.488281 23.457031 15.742188 23.230469 16.097656 23.105469 C 16.449219 22.945312 16.863281 22.878906 17.34375 22.878906 C 18.144531 22.878906 18.753906 23.070312 19.167969 23.425781 C 19.585938 23.777344 19.777344 24.257812 19.808594 24.832031 L 18.527344 24.894531 C 18.464844 24.574219 18.367188 24.320312 18.175781 24.191406 C 17.984375 24.03125 17.726562 23.96875 17.34375 23.96875 C 16.960938 23.96875 16.671875 24.03125 16.449219 24.191406 C 16.324219 24.277344 16.253906 24.421875 16.257812 24.574219 C 16.257812 24.734375 16.320312 24.863281 16.449219 24.960938 C 16.609375 25.089844 17.023438 25.246094 17.632812 25.375 C 18.238281 25.503906 18.71875 25.664062 19.039062 25.824219 C 19.359375 25.984375 19.585938 26.207031 19.742188 26.464844 C 19.902344 26.71875 20 27.070312 20 27.488281 C 20 27.839844 19.902344 28.191406 19.679688 28.511719 C 19.488281 28.832031 19.199219 29.054688 18.816406 29.214844 C 18.433594 29.375 17.984375 29.441406 17.40625 29.441406 C 16.609375 29.441406 15.96875 29.246094 15.550781 28.863281 C 15.167969 28.574219 14.910156 28.03125 14.816406 27.328125 M 14.816406 27.328125 "/>
<use xlink:href="#source-15"/>
</svg>

<svg role="img" viewBox="0 0 23.04 32" xmlns="http://www.w3.org/2000/svg"><defs><linearGradient gradientTransform="translate(0 2)" gradientUnits="userSpaceOnUse" id="sys_svg__h" x1="36" x2="36" y1="97" y2="-1"><stop offset="0" stop-color="rgb(78.431374%, 83.137256%, 85.882354%)"/><stop offset=".139" stop-color="rgb(84.705883%, 88.235295%, 90.196079%)"/><stop offset=".359" stop-color="rgb(92.156863%, 94.117647%, 95.294118%)"/><stop offset=".617" stop-color="rgb(97.647059%, 98.039216%, 98.431373%)"/><stop offset="1" stop-color="rgb(100%, 100%, 100%)"/></linearGradient><linearGradient gradientTransform="translate(0 2)" gradientUnits="userSpaceOnUse" id="sys_svg__i" x1="45.037" x2="58.537" y1="25.813" y2="12.313"><stop offset="0" stop-color="rgb(100%, 100%, 100%)"/><stop offset=".35" stop-color="rgb(98.039216%, 98.431373%, 98.431373%)"/><stop offset=".532" stop-color="rgb(92.941177%, 94.509804%, 95.686275%)"/><stop offset=".675" stop-color="rgb(86.666667%, 89.803922%, 91.37255%)"/><stop offset=".799" stop-color="rgb(78.039217%, 82.745099%, 85.490197%)"/><stop offset=".908" stop-color="rgb(67.843139%, 74.117649%, 78.039217%)"/><stop offset="1" stop-color="rgb(57.254905%, 64.705884%, 69.01961%)"/></linearGradient><linearGradient gradientTransform="scale(.32)" gradientUnits="userSpaceOnUse" id="sys_svg__b" x1="36" x2="36" y1="65.808" y2="28.808"><stop offset="0" stop-color="rgb(67.843139%, 80.000001%, 86.274511%)"/><stop offset="1" stop-color="rgb(29.803923%, 42.352942%, 48.235294%)"/></linearGradient><clipPath id="sys_svg__c"><path d="M0 0h23.125v32H0Zm0 0"/></clipPath><clipPath id="sys_svg__a"><path d="M0 0h24v32H0z"/></clipPath><g clip-path="url(#sys_svg__a)" id="sys_svg__e"><path d="m16.734 19.2-3.804-3.84c-.035-.032-.067-.063-.13-.094l.673-.707.093-.094c.899.351 1.954.16 2.657-.578.511-.512.8-1.246.738-1.985 0-.093-.066-.16-.129-.191-.062-.031-.16 0-.223.066l-1.218 1.215-1.246-.32-.352-1.281 1.215-1.215c.062-.063.062-.16.062-.223a.21.21 0 0 0-.191-.129c-.738-.07-1.469.2-1.984.735-.735.738-.895 1.761-.575 2.656l-.097.098-.993.96-1.824-1.824-.062-.066c.031-.031.031-.063.062-.125.387.062 1.09-.672 1.7-1.281L9.343 9.215c-.77.77-1.344 1.312-1.281 1.695-.192.098-.352.195-.446.32l-.258.227q-.238.24-.289.574c-.03.031-.062.067-.062.098l-.098.129v.031l-.094.125c-.062.066-.097.16-.128.227-.032.03-.032.062-.063.093l-.031.067c-.035.094-.098.16-.133.254-.027.097-.094.226-.125.351l-.031.067c0 .03-.032.093-.032.129l-.035.16c-.031.093-.031.222-.031.285v.578l.031.129v.062c0 .063.035.13.035.16l.094.32c.031.095.13.161.227.161.062 0 .093-.031.125-.066.035-.032.066-.063.066-.125l.031-.32c0-.036 0-.067.032-.098 0-.032 0-.063.03-.063l.032-.129s0-.031.035-.031c0 0 0-.031.032-.031 0-.035.03-.067.03-.067.032-.062.032-.093.063-.129 0-.03.035-.03.035-.062.032-.063.063-.098.094-.16l.067-.098c0-.031.027-.031.062-.062l.031-.032c.032-.062.098-.097.16-.16l.032-.031c.035-.031.097-.066.129-.098.03 0 .03-.03.062-.03.035 0 .035-.032.067-.032.027-.031.062-.067.128-.067l.094-.062.098-.031c.031-.032.062-.032.094-.032.035 0 .035 0 .066-.035.031 0 .031 0 .031-.031.032 0 .032 0 .063-.031h.031c.035.031.066.097.098.129l1.793 1.793-3.938 3.644c-.48.48-.543 1.188-.062 1.664.48.48 1.152.356 1.633-.125l3.39-3.586.063.067 3.808 3.804c.426.418 1.11.418 1.535 0 .45-.414.45-1.117 0-1.535m-9.308.832c-.196.192-.45.192-.64 0-.192-.191-.192-.445 0-.64.19-.192.444-.192.64 0 .16.195.16.48 0 .64m0 0" fill="url(#sys_svg__b)"/></g><g clip-path="url(#sys_svg__c)" id="sys_svg__j" mask="url(#sys_svg__d)"><use href="#sys_svg__e"/></g><filter height="100%" id="sys_svg__f" width="100%" x="0%" y="0%"><feColorMatrix color-interpolation-filters="sRGB" values="0 0 0 0 1 0 0 0 0 1 0 0 0 0 1 0 0 0 1 0"/></filter><image height="32" href="data:image/png;base64,iVBORw0KGgoAAAANSUhEUgAAABgAAAAgCAYAAAAIXrg4AAAABmJLR0QA/wD/AP+gvaeTAAAAgklEQVRIie3UvQ3CMBCG4YcfhTGYgJLZmIH50kKRPUhMgZEQsqOToLy3svyd75Ut+UiSZNPZu+CIbaDHgglXlO9w3xGcccIuIJgx1nMhAQw4rOSfPGp9k8gT/EQKUpCC/k9dvEZAhHmttiUouNV1dBbde2Frmr4b97IWRfzGSZL8myc3vRIbjrhQ5wAAAABJRU5ErkJggg==" id="sys_svg__g" width="24" x="0" y="0"/><mask id="sys_svg__d"><g filter="url(#sys_svg__f)"><use href="#sys_svg__g"/></g></mask></defs><path d="m44.995 1.001 27.002 26.697v71.301H0V1.001Zm0 0" fill="url(#sys_svg__h)" stroke="rgb(44.313726%, 56.862748%, 63.137257%)" stroke-width="2" transform="scale(.32)"/><path d="m44.995 1.001 27.002 26.697H44.995Zm0 0" fill="url(#sys_svg__i)" stroke="rgb(44.313726%, 56.862748%, 63.137257%)" stroke-linejoin="bevel" stroke-width="2" transform="scale(.32)"/><path d="m2.879 27.328 1.25-.129c.062.418.223.738.445.93.227.191.547.285.93.285.418 0 .734-.094.93-.254.222-.191.32-.383.32-.61 0-.16-.035-.284-.129-.382-.098-.098-.258-.191-.48-.29-.16-.062-.512-.16-1.024-.284-.707-.16-1.184-.387-1.473-.64a1.68 1.68 0 0 1-.289-2.212c.192-.285.45-.512.801-.637.352-.16.77-.226 1.246-.226.801 0 1.41.191 1.824.547.418.351.61.832.641 1.406l-1.277.063c-.067-.32-.16-.575-.356-.704-.191-.16-.445-.222-.832-.222-.383 0-.672.062-.894.222a.45.45 0 0 0-.192.383q0 .24.192.387c.16.129.578.285 1.183.414.61.129 1.09.29 1.41.45s.543.382.704.64c.16.254.253.605.253 1.023 0 .352-.093.703-.32 1.024-.191.32-.476.543-.863.703-.383.16-.832.226-1.406.226-.801 0-1.442-.195-1.856-.578-.387-.289-.64-.832-.738-1.535m8 2.078V26.72l-2.336-3.711h1.504l1.504 2.527 1.472-2.527h1.504l-2.367 3.71v2.688Zm3.937-2.078 1.246-.129c.067.418.227.738.45.93.222.191.543.285.93.285.413 0 .734-.094.925-.254.227-.191.32-.383.32-.61 0-.16-.03-.284-.128-.382-.094-.098-.254-.191-.48-.29-.157-.062-.513-.16-1.024-.284-.703-.16-1.184-.387-1.47-.64-.386-.352-.577-.77-.577-1.282 0-.32.097-.64.289-.93.191-.285.445-.512.8-.637.352-.16.766-.226 1.247-.226.8 0 1.41.191 1.824.547.418.351.61.832.64 1.406l-1.28.063c-.063-.32-.16-.575-.352-.704-.192-.16-.45-.222-.832-.222-.383 0-.672.062-.895.222a.45.45 0 0 0-.191.383q-.001.24.191.387c.16.129.574.285 1.184.414.605.129 1.086.29 1.406.45s.547.382.703.64c.16.254.258.605.258 1.023 0 .352-.098.703-.32 1.024-.192.32-.48.543-.864.703-.382.16-.832.226-1.41.226-.797 0-1.437-.195-1.855-.578-.383-.289-.64-.832-.735-1.535m0 0" fill="rgb(29.803923%, 42.352942%, 48.235294%)"/><use href="#sys_svg__j"/></svg>
